source/asset/images/icons/icon-contacts-time.svg

<svg width="16" height="17" viewBox="0 0 16 17" fill="none" xmlns="http://www.w3.org/2000/svg">
<path d="M8 1.5C4.1402 1.5 1 4.6402 1 8.5C1 12.3598 4.1402 15.5 8 15.5C11.8598 15.5 15 12.3598 15 8.5C15 4.6402 11.8598 1.5 8 1.5ZM8 14.1C4.9123 14.1 2.4 11.5877 2.4 8.5C2.4 5.4123 4.9123 2.9 8 2.9C11.0877 2.9 13.6 5.4123 13.6 8.5C13.6 11.5877 11.0877 14.1 8 14.1Z" fill="white"/>
<path d="M8.125 5.375H6.875V8.75875L8.93313 10.8169L9.81687 9.93312L8.125 8.24125V5.375Z" fill="white"/>
</svg>

<svg width="16" height="17" viewBox="0 0 16 17" fill="none" xmlns="http://www.w3.org/2000/svg"><path d="M8 1.5c-3.86 0-7 3.14-7 7s3.14 7 7 7 7-3.14 7-7-3.14-7-7-7zm0 12.6a5.607 5.607 0 01-5.6-5.6c0-3.088 2.512-5.6 5.6-5.6 3.088 0 5.6 2.512 5.6 5.6 0 3.088-2.512 5.6-5.6 5.6z" fill="#fff"/><path d="M8.125 5.375h-1.25v3.384l2.058 2.058.884-.884-1.692-1.692V5.375z" fill="#fff"/></svg>
